X:142
T:Ilmington Lively Jig, The
M:4/4
O:Cotswold Morris Tune, Ilmington
R:hp 32
K:F
P:A
|:C2|\
"F"F>GA>F "C"E>FG>E | "F"F>GA>F C2 F>E | "Gm"D>GG>A B>AG>F | "C"E>Gc>=B c2 C2|
"F"F>GA>F "C"E>FG>E | "F"F>GA>F C2 G>F | "Bb"E>dc>B "F"A>G"C"F>E | "F"F2 F2 F2 ::
P:B
G>F|\
"C"E>Gc>"G"=B "C"c2 G>F|"C"E>Gc>"G"=B "C"c2 B>c|"Dm"d>ef>e d>c=B>A|"G"G>AG>F G4 |
"F"A>BA>G F>A c2|"C" G>AG>F E>G c2|"F"c>fe>d "C"c>BA>G |"F" F2 F2 F2 :|

